elusive/qrcode.svg

<?xml version="1.0" encoding="UTF-8" standalone="no"?>
<!-- Generator: IcoMoon.io -->

<svg
   xmlns:dc="http://purl.org/dc/elements/1.1/"
   xmlns:cc="http://creativecommons.org/ns#"
   xmlns:rdf="http://www.w3.org/1999/02/22-rdf-syntax-ns#"
   xmlns:svg="http://www.w3.org/2000/svg"
   xmlns="http://www.w3.org/2000/svg"
   xmlns:sodipodi="http://sodipodi.sourceforge.net/DTD/sodipodi-0.dtd"
   xmlns:inkscape="http://www.inkscape.org/namespaces/inkscape"
   id="svg2"
   version="1.1"
   data-tags="remove-circle, cancel, close, remove, delete"
   height="1200"
   width="1200"
   data-du=""
   viewBox="0 0 1200 1200"
   inkscape:version="0.48.4 r9939"
   sodipodi:docname="qrcode.svg">
  <defs
     id="defs32">
    <pattern
       id="pattern13199"
       width="811.3138"
       patternUnits="userSpaceOnUse"
       patternTransform="translate(-1692.9959,113.8855)"
       height="483.7205">
      <path
         id="path13201"
         filter="url(#filter3767)"
         d="M241.8603,83.1823H569.4535A158.678,158.678 0 0 1 728.1315,241.8603V241.8603A158.678,158.678 0 0 1 569.4535,400.5382H241.8603A158.678,158.678 0 0 1 83.1823,241.8603V241.8603A158.678,158.678 0 0 1 241.8603,83.1823" />
    </pattern>
    <mask
       id="mask13195"
       maskUnits="userSpaceOnUse">
      <path
         id="path13197"
         d="m -957.1864,582.2458 40.9492,-299.4407 -144.6017,-8.9576 -10.2373,67.822 -12.7966,11.5169 -8.9576,216.2627 -65.2627,-21.7542 14.0763,-270.0085 -74.2204,-6.3983 -11.5169,28.1525 -14.0763,225.2203 -42.2288,-8.9576 2.5593,-250.8136 -6.3983,0 -7.678,-70.3814 -33.2712,1.2797 -1.2796,29.4322 -7.678,17.9153 -2.5593,189.3898 -26.8729,33.2712 2.5593,88.2966 40.9492,19.1949 34.5508,-46.0678 284.0848,76.7797 49.9068,-21.7542"
         inkscape:connector-curvature="0"
         style="fill:#ffffff;stroke:#000000" />
    </mask>
    <filter
       id="filter13191"
       y="-0.26210001"
       x="-0.12899999"
       width="1.2579"
       height="1.5242"
       color-interpolation-filters="sRGB">
      <feGaussianBlur
         id="feGaussianBlur13193"
         stdDeviation="34.659" />
    </filter>
    <inkscape:path-effect
       id="path-effect13189" />
  </defs>
  <sodipodi:namedview
     pagecolor="#ffffff"
     bordercolor="#666666"
     borderopacity="1"
     objecttolerance="10"
     gridtolerance="10"
     guidetolerance="10"
     inkscape:pageopacity="0"
     inkscape:pageshadow="2"
     inkscape:window-width="1535"
     inkscape:window-height="876"
     id="namedview30"
     showgrid="false"
     inkscape:zoom="0.52678571"
     inkscape:cx="593.76445"
     inkscape:cy="629.17655"
     inkscape:window-x="65"
     inkscape:window-y="24"
     inkscape:window-maximized="1"
     inkscape:current-layer="svg2" />
  <metadata
     id="metadata62">
    <rdf:RDF>
      <cc:Work
         rdf:about="">
        <dc:format>image/svg+xml</dc:format>
        <dc:type
           rdf:resource="http://purl.org/dc/dcmitype/StillImage" />
        <dc:title />
      </cc:Work>
    </rdf:RDF>
  </metadata>
  <path
     style="fill:currentColor"
     d="M 0 0 L 0 545.3125 L 545.3125 545.3125 L 545.3125 0 L 0 0 z M 654.6875 0 L 654.6875 545.3125 L 1200 545.3125 L 1200 0 L 654.6875 0 z M 108.59375 108.59375 L 436.71875 108.59375 L 436.71875 436.71875 L 108.59375 436.71875 L 108.59375 108.59375 z M 763.28125 108.59375 L 1091.4062 108.59375 L 1091.4062 436.71875 L 763.28125 436.71875 L 763.28125 108.59375 z M 217.96875 219.53125 L 217.96875 328.125 L 328.125 328.125 L 328.125 219.53125 L 217.96875 219.53125 z M 871.875 219.53125 L 871.875 328.125 L 980.46875 328.125 L 980.46875 219.53125 L 871.875 219.53125 z M 0 654.6875 L 0 1200 L 545.3125 1200 L 545.3125 654.6875 L 0 654.6875 z M 654.6875 654.6875 L 654.6875 1200 L 763.28125 1200 L 763.28125 873.4375 L 871.875 873.4375 L 871.875 982.03125 L 1200 982.03125 L 1200 654.6875 L 1091.4062 654.6875 L 1091.4062 763.28125 L 980.46875 763.28125 L 980.46875 654.6875 L 654.6875 654.6875 z M 108.59375 763.28125 L 436.71875 763.28125 L 436.71875 1091.4062 L 108.59375 1091.4062 L 108.59375 763.28125 z M 217.96875 871.875 L 217.96875 982.03125 L 328.125 982.03125 L 328.125 871.875 L 217.96875 871.875 z M 871.875 1091.4062 L 871.875 1200 L 980.46875 1200 L 980.46875 1091.4062 L 871.875 1091.4062 z M 1091.4062 1091.4062 L 1091.4062 1200 L 1200 1200 L 1200 1091.4062 L 1091.4062 1091.4062 z "
     id="path3011" />
</svg>

<?xml version="1.0" encoding="utf-8"?>
<!-- Generator: Adobe Illustrator 13.0.0, SVG Export Plug-In . SVG Version: 6.00 Build 14948)  -->
<!DOCTYPE svg PUBLIC "-//W3C//DTD SVG 1.1//EN" "http://www.w3.org/Graphics/SVG/1.1/DTD/svg11.dtd">
<svg version="1.1"
	 id="svg2" inkscape:version="0.48.4 r9939" sodipodi:docname="qrcode.svg" xmlns:dc="http://purl.org/dc/elements/1.1/" xmlns:cc="http://creativecommons.org/ns#" xmlns:rdf="http://www.w3.org/1999/02/22-rdf-syntax-ns#" xmlns:svg="http://www.w3.org/2000/svg" xmlns:sodipodi="http://sodipodi.sourceforge.net/DTD/sodipodi-0.dtd" xmlns:inkscape="http://www.inkscape.org/namespaces/inkscape"
	 xmlns="http://www.w3.org/2000/svg" xmlns:xlink="http://www.w3.org/1999/xlink" x="0px" y="0px" width="1200px" height="1200px"
	 viewBox="0 0 1200 1200" enable-background="new 0 0 1200 1200" xml:space="preserve">
<path id="path3011" d="M0,0v545.313h545.313V0H0z M654.688,0v545.313H1200V0H654.688z M108.594,108.594h328.125v328.125H108.594
	V108.594z M763.281,108.594h328.125v328.125H763.281V108.594z M217.969,219.531v108.594h110.156V219.531H217.969z M871.875,219.531
	v108.594h108.594V219.531H871.875z M0,654.688V1200h545.313V654.688H0z M654.688,654.688V1200h108.594V873.438h108.594v108.594H1200
	V654.688h-108.594v108.594H980.469V654.688H654.688z M108.594,763.281h328.125v328.125H108.594V763.281z M217.969,871.875v110.156
	h110.156V871.875H217.969z M871.875,1091.406V1200h108.594v-108.594H871.875z M1091.406,1091.406V1200H1200v-108.594H1091.406z"/>
</svg>
